assets/images/sine-die-logo.svg

<?xml version="1.0" encoding="UTF-8" standalone="no"?>
<svg
  height="1024"
  stroke-miterlimit="10"
  style="clip-rule:evenodd;fill-rule:nonzero;stroke-linecap:round;stroke-linejoin:round"
  version="1.1"
  viewBox="0 0 1024 1024"
  width="1024"
  id="sine-die-logo-full"
  xmlns="http://www.w3.org/2000/svg"
  xmlns:svg="http://www.w3.org/2000/svg"
>
  <style>
    #sine-die-logo-full {
      font-family: -apple-system, "system-ui", Avenir, "Avenir Next", "Segoe UI", Roboto, Oxygen, Ubuntu, Cantarell, "Fira Sans", "Droid Sans", "Helvetica Neue", sans-serif;
      --color-primary: #34698c;
      --color-secondary: #5f6841;
      --color-tertiary: #805562;
    }

    #sine-die-logo {
      clip-path: rect(0, 0, 1024, 1024);
    }

    #sine-die-logo .arrows path {
      fill: oklch(from var(--color-secondary) calc(l * 1.4) c h);
      fill-rule: "nonzero";
      opacity: 1;
      stroke: oklch(from var(--color-secondary) calc(l * .75) c h);
      stroke-linecap: butt;
      stroke-linejoin: round;
      stroke-width: 10;
    }

    #hourglass .sand {
      fill: black;
      fill-opacity: 0.5;
      opacity: 1;
      stroke: none;
      fill-rule: nonzero;
    }

    #hourglass .light {
      fill: white;
      fill-opacity: 0.5;
      opacity: 1;
      stroke: none;
      fill-rule: nonzero;
    }

    #hourglass .glass {
      fill: oklch(from var(--color-primary) calc(l * 1.4) c h);
      fill-rule: nonzero;
      opacity: 1;
      stroke: oklch(from var(--color-primary) calc(l * .75) c h);
      stroke-linecap: butt;
      stroke-linejoin: round;
      stroke-width: 10;
    }

    #hourglass .base {
      fill: oklch(from var(--color-tertiary) calc(l * 1.25) c h);
      fill-rule: nonzero;
      opacity: 1;
      stroke: oklch(from var(--color-tertiary) calc(l * .75) c h);
      stroke-linecap: butt;
      stroke-linejoin: round;
      stroke-width: 10;
    }

    #sine-die-brand-name {
      clip-path: rect(0, 0, 3000, 900);
    }

    .brand-name {
      font-size: 40em;
      text-align: start;
      fill: oklch(from var(--color-primary) calc(l * 1.25) c h);
      fill-opacity: 1;
    }

    #sine-die-tagline {
      clip-path: rect(0, 0, 2000, 300);
    }

    .tagline {
      font-size: 10em;
      text-align: center;
      fill: oklch(from var(--color-tertiary) calc(l * 1.25) c h);
      fill-opacity: 1
      fill-rule: nonzero;
      stroke-linecap: round;
      stroke-linejoin: round;
    }
  </style>
    <symbol id="sine-die-logo" width="1024" height="1024" viewBox="0 0 1024 1024">
      <g id="hourglass">
        <path
          d="
            m 509.5,261
            c -61.573,0
              -115,2.78
              -115,81.531
              0,73.025
              45.958,146.769
              101.733,157.125
              0.425,2.493
              0.809,5.003
              0.809,7.344
              0,4.349
              -1.253,10.07
              -1.647,15.531
              -10e-4,0.011
              0,0.021
              0,0.032
              -55.392,10.944
              -100.895,84.252
              -100.895,156.906
              0,78.751
              53.427,81.531
              115,81.531
              61.573,0
              115,-2.78
              115,-81.531
              0,-71.758
              -44.396,-144.116
              -98.858,-156.438
              -0.349,-5.613
              -1.647,-11.545
              -1.647,-16.031
              0,-2.497
              0.409,-5.185
              0.838,-7.844
              C 579.665,487.375
              624.5,414.645
              624.5,342.531
              624.5,263.78
              571.073,261
              509.5,261
            Z
          "
          class="glass"
        />
        <path
          d="
            m 509.5,509.024
            c -5,-4.941
              0.847,-17.084
              -10,-19.763
              -20,-4.941
              -48.512,-19.544
              -50.49,-41.554
              -0.748,-8.328
              15.851,-9.807
              20.065,-10.067
              15.114,-0.932
              31.544,4.927
              46.155,1.558
              25.977,-5.991
              52.557,-22.394
              75.532,-32.676
              2.618,-1.172
              6.145,-2.517
              8.926,-0.851
              6.222,3.728
              -2.327,14.522
              -5.966,20.747
              -4.217,7.214
              -9.143,14.013
              -14.16,20.708
              -7.602,10.145
              -19.809,19.746
              -29.618,28.607
            C 529.5,494.202
              519.5,484.32
              514.5,494.202
          "
          class="sand"
        />
        <path
          d="m 499.5,642.423
            c -4.903,9.305
              -11.284,18.714
              -20,24.703
              -21.883,15.039
              -49.511,7.857
              -70,24.704
              -7.108,5.845
              0,19.763
              7.63,33.311
              12.37,21.037
              53.439,24.814
              82.086,25.169
              65.284,0.809
              85.284,-9.073
              98.976,-20.703
              8.233,-6.994
              16.921,-38.922
              6.308,-42.718
              -28.687,-13.09
              -65,-4.94
              -75,-24.703
              -12.2,-24.111
              -17.224,-57.176
              -20,-83.992
          "
          class="sand"
        />
        <path
          d="
            m 404.5,331.158
            c 0,-22.095
              24.583,-22.562
              25,0
              0.151,48.389
              -5,54.348
              10,103.755
              -20,-29.644
              -35,-59.288
              -35,-88.933
          "
          class="light"
        />
        <path
          d="
            m 416.48,627.601
            c 6.613,-24.255
              15,-34.585
              20,-44.467
              5.015,-9.91
              22.469,-29.431
              40,-34.585
              35,0
              -10,19.763
              -25,44.467
          "
          class="light"
        />
        <path
          d="
            m 345,220
            h 335
            v 45
            H 345
            Z
          "
          class="base"
        />
        <path
          d="
            m 345,760
            h 335
            v 45
            H 345
            Z
          "
          class="base"
        />
      </g>
      <g class="arrows">
        <path
          d="
            m 200.749,156.469
            c -17.23,-14.88
              -32.488,-32.411
              -51.691,-44.639
              -8.025,-5.111
              -18.411,-6.783
              -27.896,-6.041
              -7.206,0.565
              -12.932,21.576
              -13.81,30.733
              -6.465,67.447
              -14.8206,134.914
              -15.6281,202.665
              -0.0824,6.919
              6.7275,13.289
              13.0201,16.168
              6.966,3.187
              15.556,2.192
              22.98,0.301
              62.215,-15.844
              124.433,-32.235
              185.083,-53.288
              5.206,-1.808
              8.1,-8.54
              8.782,-14.009
              0.846,-6.794
              -0.26,-14.69
              -4.541,-20.033
              -17.315,-21.609
              -39.1,-39.219
              -58.65,-58.828
              40.453,-31.24
              81.832,-63.553
              129.392,-82.272
              46.044,-18.122
              97.52,-21.881
              146.988,-20.746
              91.071,2.089
              176.278,48.693
              238.818,112.441
              64.982,66.237
              100.683,150.759
              114.943,241.414
              3.634,23.101
              -1.405,47.679
              5.844,69.912
              3.397,10.42
              14.738,16.73
              24.205,22.252
              7.378,4.303
              27.412,-1.309
              32.224,-6.32
              6.157,-6.413
              12.372,-14.719
              12.408,-23.61
              0.159,-40.377
              5.441,-65.024
              -4.559,-115.024
              -5.987,-29.936
              -14.507,-66.33
              -25,-95
              -11.796,-32.232
              -35,-80
              -60,-110
            C 840.965,163.31
              821.25,138.425
              780.593,107.515
              685.532,35.2466
              575.443,19.9386
              459.46,30.3958
              425.443,33.4628
              389.467,42.4245
              357.925,55.4917
              334.477,65.2059
              310.576,74.6005
              289.222,88.3193
              257.903,108.44
              230.24,133.752
              200.749,156.469
            Z
          "
        />
        <path
          d="
            m 820.488,868.421
            c 20.907,16.875
              40.295,35.829
              62.721,50.625
              8.238,5.434
              25.795,-1.796
              27.259,-11.556
              10.529,-70.202
              17.351,-140.978
              22.285,-211.794
              0.467,-6.7
              -1.931,-13.98
              -6.191,-19.173
              -4.047,-4.933
              -10.659,-10.29
              -16.904,-8.982
              -67.386,14.119
              -133.848,32.884
              -199.288,54.28
              -5.343,1.747
              -7.977,8.543
              -9.449,13.968
              -1.429,5.265
              -2.231,12.104
              1.231,16.321
              18.693,22.768
              49.575,36.854
              60.889,64.053
              -38.267,30.395
              -77.378,62.588
              -123.288,79.337
              -26.863,9.8
              -54.78,17.26
              -83.076,21.378
              -24.737,3.601
              -50.092,4.021
              -74.974,1.627
              -26.509,-2.551
              -52.662,-8.814
              -78.199,-16.367
              -20.241,-5.987
              -40.318,-13.474
              -58.566,-24.082
              -28.318,-16.463
              -56.346,-34.303
              -80.299,-56.647
              -26.171,-24.413
              -47.999,-53.305
              -68.796,-82.432
              -12.162,-17.034
              -21.192,-36.208
              -29.601,-55.375
              -8.463,-19.287
              -16.781,-38.979
              -20.864,-59.642
              -8.175,-41.366
              -7.289,-84.204
              -15.729,-125.517
              -1.511,-7.394
              -7.506,-13.658
              -13.612,-18.093
              -11.294,-8.204
              -30.4801,-12.613
              -41.659,-4.255
              -4.9,3.664
              -9.6667,8.764
              -10.922,14.752
              -3.7777,18.022
              -4.9985,36.745
              -3.7237,55.115
              2.1373,30.796
              6.3874,61.62
              13.903,91.561
              8.1045,32.287
              19.5905,63.767
              32.7607,94.34
              18.429,42.781
              51.343,89.287
              83.077,122.716
              112.39,118.389
              263.463,166.541
              423.117,130.027
              24.574,-5.62
              48.984,-12.863
              71.99,-23.171
              50.097,-22.446
              93.61,-58.021
              135.908,-93.014
            z
          "
        />
      </g>
    </symbol>
  <use href="#sine-die-logo" x="0" y="0" />
</svg>

<?xml version="1.0" encoding="UTF-8" standalone="no"?>
<!DOCTYPE svg PUBLIC "-//W3C//DTD SVG 1.1//EN" "http://www.w3.org/Graphics/SVG/1.1/DTD/svg11.dtd">
<!-- Created with Vectornator (http://vectornator.io/) -->
<svg height="100%" stroke-miterlimit="10" style="fill-rule:nonzero;clip-rule:evenodd;stroke-linecap:round;stroke-linejoin:round;" version="1.1" viewBox="0 0 1024 1024" width="100%" xml:space="preserve" xmlns="http://www.w3.org/2000/svg" xmlns:vectornator="http://vectornator.io" xmlns:xlink="http://www.w3.org/1999/xlink">
<defs/>
<clipPath id="ArtboardFrame">
<rect height="1024" width="1024" x="0" y="0"/>
</clipPath>
<g clip-path="url(#ArtboardFrame)" id="Layer-4" vectornator:layerName="Layer 4">
<g opacity="1" vectornator:layerName="Group 1">
<path d="M509.5 261C447.927 261 394.5 263.78 394.5 342.531C394.5 415.556 440.458 489.3 496.233 499.656C496.658 502.149 497.042 504.659 497.042 507C497.042 511.349 495.789 517.07 495.395 522.531C495.394 522.542 495.395 522.552 495.395 522.563C440.003 533.507 394.5 606.815 394.5 679.469C394.5 758.22 447.927 761 509.5 761C571.073 761 624.5 758.22 624.5 679.469C624.5 607.711 580.104 535.353 525.642 523.031C525.293 517.418 523.995 511.486 523.995 507C523.995 504.503 524.404 501.815 524.833 499.156C579.665 487.375 624.5 414.645 624.5 342.531C624.5 263.78 571.073 261 509.5 261Z" fill="#3395ff" fill-rule="nonzero" opacity="1" stroke="#007aff" stroke-linecap="butt" stroke-linejoin="round" stroke-width="10" vectornator:layerName="Curve 1"/>
<path d="M509.5 509.024C504.5 504.083 510.347 491.94 499.5 489.261C479.5 484.32 450.988 469.717 449.01 447.707C448.262 439.379 464.861 437.9 469.075 437.64C484.189 436.708 500.619 442.567 515.23 439.198C541.207 433.207 567.787 416.804 590.762 406.522C593.38 405.35 596.907 404.005 599.688 405.671C605.91 409.399 597.361 420.193 593.722 426.418C589.505 433.632 584.579 440.431 579.562 447.126C571.96 457.271 559.753 466.872 549.944 475.733C529.5 494.202 519.5 484.32 514.5 494.202" fill="#212222" fill-opacity="0.504504" fill-rule="nonzero" opacity="1" stroke="none" vectornator:layerName="Curve 1"/>
<path d="M499.5 642.423C494.597 651.728 488.216 661.137 479.5 667.126C457.617 682.165 429.989 674.983 409.5 691.83C402.392 697.675 409.5 711.593 417.13 725.141C429.5 746.178 470.569 749.955 499.216 750.31C564.5 751.119 584.5 741.237 598.192 729.607C606.425 722.613 615.113 690.685 604.5 686.889C575.813 673.799 539.5 681.949 529.5 662.186C517.3 638.075 512.276 605.01 509.5 578.194" fill="#212222" fill-opacity="0.504504" fill-rule="nonzero" opacity="1" stroke="none" vectornator:layerName="Curve 2"/>
<path d="M404.5 331.158C404.5 309.063 429.083 308.596 429.5 331.158C429.651 379.547 424.5 385.506 439.5 434.913C419.5 405.269 404.5 375.625 404.5 345.98" fill="#ffffff" fill-opacity="0.504504" fill-rule="nonzero" opacity="1" stroke="none" vectornator:layerName="Curve 1"/>
<path d="M416.48 627.601C423.093 603.346 431.48 593.016 436.48 583.134C441.495 573.224 458.949 553.703 476.48 548.549C511.48 548.549 466.48 568.312 451.48 593.016" fill="#ffffff" fill-opacity="0.504504" fill-rule="nonzero" opacity="1" stroke="none" vectornator:layerName="Curve 2"/>
<path d="M347 232L682 232L682 257L347 257L347 232Z" fill="#A8C9FB" fill-rule="nonzero" opacity="1" stroke="#385A8C" stroke-linecap="butt" stroke-linejoin="round" stroke-width="10" vectornator:layerName="Rectangle 2"/>
<path d="M342 767L677 767L677 792L342 792L342 767Z" fill="#A8C9FB" fill-rule="nonzero" opacity="1" stroke="#385A8C" stroke-linecap="butt" stroke-linejoin="round" stroke-width="10" vectornator:layerName="Rectangle 1"/>
</g>
<path d="M197.583 241.823L134.404 187.292C178.837 135.812 230.518 95.8541 289.448 67.4173C348.377 38.9804 410.195 22.3851 474.901 17.6313C539.608 12.8776 603.187 20.2604 665.64 39.7797C728.093 59.2991 785.059 91.2753 836.538 135.708C892.697 184.181 935.089 241.508 963.712 307.691C992.336 373.873 1006.79 441.904 1007.08 511.783C1007.42 525.831 1003.45 536.907 995.162 545.014C986.876 553.12 976.806 556.57 964.952 555.365C953.345 554.372 944.061 549.691 937.102 541.32C930.143 532.95 926.684 522.765 926.726 510.766C926.395 452.886 914.069 396.579 889.747 341.846C865.425 287.113 829.617 239.337 782.325 198.518C738.728 160.888 690.947 133.832 638.984 117.348C587.02 100.865 534.307 94.5867 480.844 98.5144C427.38 102.442 376.159 116.471 327.179 140.601C278.199 164.731 235 198.472 197.583 241.823ZM185.987 889.426C129.581 840.741 87.0668 783.307 58.4431 717.124C29.8194 650.942 15.363 582.911 15.0738 513.032C14.9802 499.197 19.1296 488.165 27.5221 479.936C35.9146 471.706 45.9146 468.088 57.5223 469.081C69.1299 470.073 78.3601 474.817 85.2128 483.31C92.0656 491.804 95.4713 502.05 95.4301 514.049C95.5142 571.717 107.717 627.917 132.039 682.65C156.362 737.383 192.415 785.372 240.2 826.616C283.797 864.246 331.524 891.364 383.382 907.971C435.239 924.577 487.899 930.917 541.363 926.989C594.826 923.061 646.047 909.032 695.027 884.902C744.007 860.772 787.312 826.908 824.942 783.311L888.121 837.842C843.688 889.322 791.954 929.342 732.918 957.902C673.882 986.462 612.064 1003.06 547.464 1007.69C482.864 1012.32 419.338 1004.87 356.885 985.354C294.433 965.835 237.467 933.859 185.987 889.426ZM902.769 919.47L733.183 773.096C720.128 761.829 715.234 750.942 718.499 740.436C721.764 729.93 731.327 722.711 747.186 718.777L931.676 672.349C944.816 669.077 955.38 670.781 963.368 677.461C971.356 684.141 974.709 694.449 973.426 708.385L954.777 897.309C953.204 913.573 947.468 924.203 937.569 929.198C927.67 934.193 916.07 930.95 902.769 919.47ZM119.806 106.352L289.023 252.407C302.078 263.675 306.973 274.562 303.707 285.068C300.442 295.573 290.88 302.793 275.02 306.726L90.5305 353.154C77.3906 356.426 66.8266 354.723 58.8382 348.043C50.8499 341.363 47.4973 331.055 48.7804 317.119L67.7982 128.513C69.3379 111.79 75.0657 101.046 84.9814 96.2803C94.8972 91.5147 106.506 94.872 119.806 106.352Z" fill="#A8C9FB" opacity="0" stroke="none" vectornator:layerName="Text 1"/>
</g>
<g id="Layer-1" vectornator:layerName="Layer 1">
<g opacity="1" vectornator:layerName="Group 1">
<path d="M200.749 156.469C183.519 141.589 168.261 124.058 149.058 111.83C141.033 106.719 130.647 105.047 121.162 105.789C113.956 106.354 108.23 127.365 107.352 136.522C100.887 203.969 92.5314 271.436 91.7239 339.187C91.6415 346.106 98.4514 352.476 104.744 355.355C111.71 358.542 120.3 357.547 127.724 355.656C189.939 339.812 252.157 323.421 312.807 302.368C318.013 300.56 320.907 293.828 321.589 288.359C322.435 281.565 321.329 273.669 317.048 268.326C299.733 246.717 277.948 229.107 258.398 209.498C298.851 178.258 340.23 145.945 387.79 127.226C433.834 109.104 485.31 105.345 534.778 106.48C625.849 108.569 711.056 155.173 773.596 218.921C838.578 285.158 874.279 369.68 888.539 460.335C892.173 483.436 887.134 508.014 894.383 530.247C897.78 540.667 909.121 546.977 918.588 552.499C925.966 556.802 946 551.19 950.812 546.179C956.969 539.766 963.184 531.46 963.22 522.569C963.379 482.192 968.661 457.545 958.661 407.545C952.674 377.609 944.154 341.215 933.661 312.545C921.865 280.313 898.661 232.545 873.661 202.545C840.965 163.31 821.25 138.425 780.593 107.515C685.532 35.2466 575.443 19.9386 459.46 30.3958C425.443 33.4628 389.467 42.4245 357.925 55.4917C334.477 65.2059 310.576 74.6005 289.222 88.3193C257.903 108.44 230.24 133.752 200.749 156.469Z" fill="#A8C9FB" fill-rule="nonzero" opacity="1" stroke="#385A8C" stroke-linecap="butt" stroke-linejoin="round" stroke-width="10"/>
<path d="M820.488 868.421C841.395 885.296 860.783 904.25 883.209 919.046C891.447 924.48 909.004 917.25 910.468 907.49C920.997 837.288 927.819 766.512 932.753 695.696C933.22 688.996 930.822 681.716 926.562 676.523C922.515 671.59 915.903 666.233 909.658 667.541C842.272 681.66 775.81 700.425 710.37 721.821C705.027 723.568 702.393 730.364 700.921 735.789C699.492 741.054 698.69 747.893 702.152 752.11C720.845 774.878 751.727 788.964 763.041 816.163C724.774 846.558 685.663 878.751 639.753 895.5C612.89 905.3 584.973 912.76 556.677 916.878C531.94 920.479 506.585 920.899 481.703 918.505C455.194 915.954 429.041 909.691 403.504 902.138C383.263 896.151 363.186 888.664 344.938 878.056C316.62 861.593 288.592 843.753 264.639 821.409C238.468 796.996 216.64 768.104 195.843 738.977C183.681 721.943 174.651 702.769 166.242 683.602C157.779 664.315 149.461 644.623 145.378 623.96C137.203 582.594 138.089 539.756 129.649 498.443C128.138 491.049 122.143 484.785 116.037 480.35C104.743 472.146 85.5569 467.737 74.378 476.095C69.478 479.759 64.7113 484.859 63.456 490.847C59.6783 508.869 58.4575 527.592 59.7323 545.962C61.8696 576.758 66.1197 607.582 73.6353 637.523C81.7398 669.81 93.2258 701.29 106.396 731.863C124.825 774.644 157.739 821.15 189.473 854.579C301.863 972.968 452.936 1021.12 612.59 984.606C637.164 978.986 661.574 971.743 684.58 961.435C734.677 938.989 778.19 903.414 820.488 868.421Z" fill="#A8C9FB" fill-rule="nonzero" opacity="1" stroke="#385A8C" stroke-linecap="butt" stroke-linejoin="round" stroke-width="10"/>
</g>
</g>#8fbdff
</svg>
